src/icons/rain.svg

<svg
    width="26"
    height="27"
    viewBox="0 0 26 27"
    fill="none"
    xmlns="http://www.w3.org/2000/svg"
  >
    <path
      d="M6.12207 17.4004H19.5068C23.1055 17.4004 25.8018 14.6719 25.8018 11.2666C25.8018 7.76465 22.9766 5.17578 19.292 5.17578C17.9707 2.57617 15.5107 0.814453 12.2559 0.814453C8.1416 0.814453 4.80078 3.9834 4.40332 7.99023C2.41602 8.58105 0.922852 10.2998 0.922852 12.6201C0.922852 15.2842 2.86719 17.4004 6.12207 17.4004ZM15.0059 22.5674L16.3916 20.1719C16.5957 19.8174 16.4883 19.4092 16.1445 19.2051C15.79 19.001 15.3926 19.1191 15.1885 19.4736L13.792 21.8906C13.5986 22.2236 13.6846 22.6318 14.0498 22.8359C14.3936 23.04 14.8125 22.9111 15.0059 22.5674ZM6.45508 22.5781L7.84082 20.1826C8.04492 19.8281 7.9375 19.4199 7.59375 19.2158C7.23926 19.0117 6.85254 19.1299 6.6377 19.4844L5.24121 21.9014C5.04785 22.2344 5.14453 22.6426 5.49902 22.8467C5.84277 23.04 6.26172 22.9219 6.45508 22.5781ZM18.3682 25.5967L19.7539 23.1904C19.9688 22.8467 19.8613 22.4277 19.5068 22.2236C19.1631 22.0303 18.7656 22.1377 18.5508 22.5029L17.165 24.9199C16.9609 25.2529 17.0576 25.6611 17.4121 25.8652C17.7559 26.0586 18.1748 25.9297 18.3682 25.5967ZM9.82812 25.5967L11.2139 23.2012C11.418 22.8574 11.3105 22.4385 10.9668 22.2344C10.6123 22.0303 10.2148 22.1484 10.0107 22.5137L8.61426 24.9199C8.4209 25.2529 8.50684 25.6719 8.87207 25.876C9.21582 26.0693 9.63477 25.9404 9.82812 25.5967Z"
      fill="white"
    />
  </svg>

<svg xmlns="http://www.w3.org/2000/svg" width="26" height="27" fill="none"><path fill="#fff" d="M6.122 17.4h13.385c3.598 0 6.295-2.728 6.295-6.133 0-3.502-2.825-6.091-6.51-6.091-1.321-2.6-3.781-4.362-7.036-4.362-4.114 0-7.455 3.17-7.853 7.176-1.987.591-3.48 2.31-3.48 4.63 0 2.664 1.944 4.78 5.2 4.78Zm8.884 5.167 1.386-2.395a.69.69 0 0 0-.247-.967c-.355-.204-.752-.086-.957.269l-1.396 2.417a.666.666 0 0 0 .258.945.685.685 0 0 0 .956-.269Zm-8.55.011 1.385-2.395a.69.69 0 0 0-.247-.967c-.355-.204-.741-.086-.956.268L5.24 21.901a.674.674 0 0 0 .258.946.694.694 0 0 0 .956-.269Zm11.912 3.019 1.386-2.407a.676.676 0 0 0-.247-.966c-.344-.194-.741-.086-.956.279l-1.386 2.417a.663.663 0 0 0 .247.945.703.703 0 0 0 .956-.268Zm-8.54 0 1.386-2.396a.693.693 0 0 0-.247-.967c-.355-.204-.752-.086-.956.28L8.614 24.92a.678.678 0 0 0 .258.956.698.698 0 0 0 .956-.28Z"/></svg>
